X:176
T:Reel 176
M:4/4
K:Emin
L:1/8
BA|GEEG B2AF|G2GF GABA|GFGA B2Bc|dBcA B2cA|GEGA B2BA|GEEF GABA|GFGA BcdB|AFDF A2|BA|GABc d2Bc|defd edBA|GABc dcde|fefg edBA|GABc d2ec|dcdB AdBA|dede BcdB|FGFE F2|
